symbols/web/screen_share/materialsymbolsoutlined/screen_share_wght100grad200_20px.svg

<svg xmlns="http://www.w3.org/2000/svg" height="20" width="20"><path d="M7 11.708h1.208v-1.625q0-.416.323-.739t.74-.323h1.708v1.354l1.959-1.958-1.959-1.959v1.354H9.271q-.938 0-1.604.667Q7 9.146 7 10.083Zm-3.042 2.959q-.791 0-1.333-.542-.542-.542-.542-1.333V5.083q0-.791.542-1.333.542-.542 1.333-.542h12.084q.791 0 1.333.542.542.542.542 1.333v7.709q0 .791-.542 1.333-.542.542-1.333.542Zm0-1.209h12.084q.25 0 .458-.208.208-.208.208-.458V5.083q0-.25-.208-.458-.208-.208-.458-.208H3.958q-.25 0-.458.208-.208.208-.208.458v7.709q0 .25.208.458.208.208.458.208Zm-2.27 3.292q-.23 0-.417-.188-.188-.187-.188-.416 0-.229.188-.417.187-.187.417-.187h16.624q.23 0 .417.187.188.188.188.417 0 .229-.188.416-.187.188-.417.188Zm1.604-3.292V4.417 13.458Z"/></svg>

<svg xmlns="http://www.w3.org/2000/svg" height="20" width="20"><path d="M7 11.708H8.208V10.083Q8.208 9.667 8.531 9.344Q8.854 9.021 9.271 9.021H10.979V10.375L12.938 8.417L10.979 6.458V7.812H9.271Q8.333 7.812 7.667 8.479Q7 9.146 7 10.083ZM3.958 14.667Q3.167 14.667 2.625 14.125Q2.083 13.583 2.083 12.792V5.083Q2.083 4.292 2.625 3.75Q3.167 3.208 3.958 3.208H16.042Q16.833 3.208 17.375 3.75Q17.917 4.292 17.917 5.083V12.792Q17.917 13.583 17.375 14.125Q16.833 14.667 16.042 14.667ZM3.958 13.458H16.042Q16.292 13.458 16.5 13.25Q16.708 13.042 16.708 12.792V5.083Q16.708 4.833 16.5 4.625Q16.292 4.417 16.042 4.417H3.958Q3.708 4.417 3.5 4.625Q3.292 4.833 3.292 5.083V12.792Q3.292 13.042 3.5 13.25Q3.708 13.458 3.958 13.458ZM1.688 16.75Q1.458 16.75 1.271 16.562Q1.083 16.375 1.083 16.146Q1.083 15.917 1.271 15.729Q1.458 15.542 1.688 15.542H18.312Q18.542 15.542 18.729 15.729Q18.917 15.917 18.917 16.146Q18.917 16.375 18.729 16.562Q18.542 16.75 18.312 16.75ZM3.292 13.458Q3.292 13.458 3.292 13.271Q3.292 13.083 3.292 12.792V5.083Q3.292 4.792 3.292 4.604Q3.292 4.417 3.292 4.417Q3.292 4.417 3.292 4.604Q3.292 4.792 3.292 5.083V12.792Q3.292 13.083 3.292 13.271Q3.292 13.458 3.292 13.458Z"/></svg>
